icons/outline/bug-off.svg

<!--
category: Development
tags: [germ, insect, error, nature]
version: "1.63"
unicode: "f0c3"
-->
<svg
  xmlns="http://www.w3.org/2000/svg"
  width="24"
  height="24"
  viewBox="0 0 24 24"
  fill="none"
  stroke="currentColor"
  stroke-width="2"
  stroke-linecap="round"
  stroke-linejoin="round"
>
  <path d="M9.884 5.873a3 3 0 0 1 5.116 2.127v1m-2 0h3a6 6 0 0 1 1 3v1m-.298 3.705a5 5 0 0 1 -9.702 -1.705v-3a6 6 0 0 1 1 -3h1m-6 4h4m10 0h4m-9 7v-6m-8 5l3.35 -2m-3.35 -10l3.75 2.4m12.25 -2.4l-3.75 2.4m-13.25 -6.4l18 18" />
</svg>

<!--
category: Development
tags: [germ, insect, error, nature]
version: "1.63"
unicode: "f0c3"
-->
<svg
  xmlns="http://www.w3.org/2000/svg"
  width="24"
  height="24"
  viewBox="0 0 24 24"
  fill="none"
  stroke="currentColor"
  stroke-width="2"
  stroke-linecap="round"
  stroke-linejoin="round"
>
    <path d="M9.884 5.873a3 3 0 0 1 5.116 2.127v1M13 9h3a6 6 0 0 1 1 3v1m-.298 3.705a5 5 0 0 1 -9.702 -1.705v-3a6 6 0 0 1 1 -3h1M3 13h4M17 13h4M12 20v-6M4 19l3.35 -2M4 7l3.75 2.4M20 7l-3.75 2.4M3 3l18 18" />
</svg>
